X:16
T: Graf und Nonne (Die Nonne)
N: Q0155O
O: Mitteleuropa, Deutschland (BRD) , Franken, Mittelfranken, Hersbruck,
N: Grundton in der zweigestrichenen Oktave
R: Ballade, Standesunterschied, vergebliche Werbung, Liebe, Klage;
M: 4/4
L: 1/8
K: C
G,2 | C3G,E,2G,2 | G,2E2E2
E2 | D3CB,2D2 | D6
G,2 | E3EE2E2 | E2G2F2
E2 | D3DD2E2 | F2A2G2
E2 | G4F4 | E6

